share/icons/hicolor/scalable/actions/inkscape-logo.svg

<?xml version="1.0" encoding="UTF-8" standalone="no"?>
<svg
   xmlns:dc="http://purl.org/dc/elements/1.1/"
   xmlns:cc="http://creativecommons.org/ns#"
   xmlns:rdf="http://www.w3.org/1999/02/22-rdf-syntax-ns#"
   xmlns:svg="http://www.w3.org/2000/svg"
   xmlns="http://www.w3.org/2000/svg"
   xmlns:xlink="http://www.w3.org/1999/xlink"
   xmlns:sodipodi="http://sodipodi.sourceforge.net/DTD/sodipodi-0.dtd"
   xmlns:inkscape="http://www.inkscape.org/namespaces/inkscape"
   id="svg1"
   width="15.010778"
   height="14.757766"
   version="1.1"
   sodipodi:docname="inkscape-logo.svg"
   inkscape:version="0.92+devel (dbb1827eab, 2018-08-02, custom)">
  <metadata
     id="metadata847">
    <rdf:RDF>
      <cc:Work
         rdf:about="">
        <dc:format>image/svg+xml</dc:format>
        <dc:type
           rdf:resource="http://purl.org/dc/dcmitype/StillImage" />
        <dc:title></dc:title>
      </cc:Work>
    </rdf:RDF>
  </metadata>
  <sodipodi:namedview
     id="base"
     showgrid="true"
     inkscape:document-rotation="0"
     inkscape:snap-global="false"
     inkscape:zoom="23.750208"
     inkscape:cx="8.3715684"
     inkscape:cy="10.396987"
     inkscape:current-layer="svg1">
    <inkscape:grid
       id="GridFromPre046Settings"
       type="xygrid"
       originx="0pt"
       originy="0pt"
       spacingx="1pt"
       spacingy="1pt"
       color="#3f3fff"
       empcolor="#3f3fff"
       opacity="0.15"
       empopacity="0.38"
       empspacing="5" />
  </sodipodi:namedview>
  <defs
     id="defs3">
    <linearGradient
       gradientUnits="userSpaceOnUse"
       id="linearGradient3731"
       inkscape:collect="always"
       x1="0"
       x2="0"
       xlink:href="#WhiteTransparent"
       y1="128"
       y2="76" />
    <linearGradient
       gradientUnits="userSpaceOnUse"
       id="linearGradient3735"
       inkscape:collect="always"
       x1="33"
       x2="58"
       xlink:href="#WhiteTransparent"
       y1="35"
       y2="60" />
    <linearGradient
       gradientUnits="userSpaceOnUse"
       id="linearGradient3733"
       inkscape:collect="always"
       x1="80"
       x2="60"
       xlink:href="#WhiteTransparent"
       y1="20"
       y2="40" />
    <linearGradient
       gradientUnits="userSpaceOnUse"
       id="linearGradient3737"
       inkscape:collect="always"
       x1="0"
       x2="0"
       xlink:href="#BlackTransparent"
       y1="128"
       y2="64" />
    <linearGradient
       gradientUnits="userSpaceOnUse"
       id="BlackTransparent">
      <stop
         id="stop12"
         offset="0"
         style="stop-color:black;stop-opacity:1" />
      <stop
         id="stop14"
         offset="1"
         style="stop-color:black;stop-opacity:0" />
    </linearGradient>
    <linearGradient
       gradientUnits="userSpaceOnUse"
       id="WhiteTransparent">
      <stop
         id="stop7"
         offset="0"
         style="stop-color:white;stop-opacity:1" />
      <stop
         id="stop9"
         offset="1"
         style="stop-color:white;stop-opacity:0" />
    </linearGradient>
    <linearGradient
       gradientUnits="userSpaceOnUse"
       id="linearGradient3739"
       inkscape:collect="always"
       x1="60"
       x2="90"
       xlink:href="#WhiteTransparent"
       y1="20"
       y2="50" />
    <linearGradient
       inkscape:collect="always"
       xlink:href="#BlackTransparent"
       id="linearGradient1817"
       gradientUnits="userSpaceOnUse"
       x1="0"
       y1="128"
       x2="0"
       y2="64" />
    <linearGradient
       inkscape:collect="always"
       xlink:href="#BlackTransparent"
       id="linearGradient1819"
       gradientUnits="userSpaceOnUse"
       x1="0"
       y1="128"
       x2="0"
       y2="64" />
    <linearGradient
       inkscape:collect="always"
       xlink:href="#BlackTransparent"
       id="linearGradient1821"
       gradientUnits="userSpaceOnUse"
       x1="0"
       y1="128"
       x2="0"
       y2="64" />
    <linearGradient
       inkscape:collect="always"
       xlink:href="#BlackTransparent"
       id="linearGradient1823"
       gradientUnits="userSpaceOnUse"
       x1="0"
       y1="128"
       x2="0"
       y2="64" />
    <linearGradient
       inkscape:collect="always"
       xlink:href="#BlackTransparent"
       id="linearGradient1825"
       gradientUnits="userSpaceOnUse"
       x1="0"
       y1="128"
       x2="0"
       y2="64" />
    <linearGradient
       inkscape:collect="always"
       xlink:href="#BlackTransparent"
       id="linearGradient1827"
       gradientUnits="userSpaceOnUse"
       x1="0"
       y1="128"
       x2="0"
       y2="64" />
    <linearGradient
       inkscape:collect="always"
       xlink:href="#BlackTransparent"
       id="linearGradient1829"
       gradientUnits="userSpaceOnUse"
       x1="0"
       y1="128"
       x2="0"
       y2="64" />
  </defs>
  <path
     inkscape:connector-curvature="0"
     sodipodi:nodetypes="ccccccccccccccccccccccc"
     style="display:inline;fill:#000000;fill-opacity:1;stroke-width:0.13294493;enable-background:new"
     d="M 6.1890188,0.57075028 0.71083029,6.1801481 C -1.3634353,8.2537658 2.0537844,8.0809643 3.2903657,8.8652168 3.8621185,9.237404 1.4554385,9.7159297 1.9474115,10.207752 c 0.4786766,0.491818 2.8853571,0.94376 3.3640337,1.422287 0.4786766,0.49182 -0.9706502,1.010224 -0.4919736,1.502042 0.4653802,0.49182 1.5822926,0.02658 1.7817411,1.143149 0.1462621,0.824129 2.0476727,0.412064 2.8986536,-0.292434 0.5318627,-0.451942 -0.917464,-0.451942 -0.4387875,-0.943761 1.1966912,-1.20961 2.2604172,-0.544989 2.6992052,-1.661552 0.239338,-0.598158 -1.8083345,-1.023516 -1.263175,-1.4089963 1.303066,-0.917177 6.08983,-1.3824106 3.8826,-3.5889518 L 8.7020718,0.57075028 c -0.7047186,-0.66462173 -1.8615208,-0.66462173 -2.513053,0 z M 12.478299,11.377483 c 0,0.279141 2.167342,0.43865 2.047672,-0.06647 -0.172854,-0.850714 -1.808334,-0.784252 -2.047672,0.06647 z M 3.2371796,12.85294 C 3.7291525,13.278298 4.4737609,12.7599 4.7130991,12.161736 4.2344226,11.536992 2.4659779,12.201626 3.2371796,12.85294 Z m 8.9751884,-0.89059 c -0.611642,0.55828 0.106377,1.143146 0.704719,0.757667 0.159557,-0.106344 -0.0133,-0.624743 -0.704719,-0.757667 z"
     id="use7631" />
  <g
     id="inkscape-logo"
     inkscape:label="#inkscape_options"
     transform="matrix(0.1336824,0,0,0.1336824,-1.0532868,-1.187227)">
    <use
       class="outline-big"
       height="128"
       id="use32"
       style="opacity:0.1;fill:none"
       width="128"
       x="0"
       xlink:href="#outline1"
       y="0" />
    <use
       class="outline-small"
       height="128"
       id="use34"
       style="opacity:0.2;fill:none"
       width="128"
       x="0"
       xlink:href="#outline1"
       y="0" />
    <use
       class="black;"
       height="128"
       id="use36"
       width="128"
       x="0"
       xlink:href="#outline1"
       y="0" />
    <use
       class="stroke-highlight"
       clip-path="url(#clipoutline1)"
       height="128"
       id="use38"
       style="opacity:0.2;fill:none"
       width="128"
       x="0"
       xlink:href="#outline1"
       y="0" />
    <use
       class="specularity"
       height="128"
       id="use40"
       style="opacity:0.5;fill:url(#linearGradient3731)"
       width="128"
       x="0"
       xlink:href="#outline1"
       y="0" />
    <use
       class="low-specularity"
       height="128"
       id="use42"
       style="opacity:0.25;fill:url(#linearGradient3733)"
       width="128"
       x="0"
       xlink:href="#outline1"
       y="0" />
    <path
       class="specularity"
       d="m 16.8,56.9 c -11.1,11 8.4,7.9 23.4,13.8 l 31,-54.5 c -4.7,-4.8 -10.7,-4.4 -15,0 z"
       id="path44"
       inkscape:connector-curvature="0"
       style="opacity:0.5;fill:url(#linearGradient3735)" />
    <path
       style="fill:url(#linearGradient1817)"
       d="m 43.9,103.6 c -0.9,1.1 -1.2,2.4 -0.1,3.6 3.6,3.6 12,0.1 13.5,8.6 1.1,6.1 14.7,2.9 21.5,-2 1.5,-1.64 0.8,-2.7 -0.5,-3.5 -7.1,4.8 -20,7.7 -21,1.9 -1.5,-8.5 -9.8,-5.1 -13.4,-8.6 z"
       id="path1815"
       inkscape:connector-curvature="0" />
    <path
       style="fill:url(#linearGradient1819)"
       d="m 98.3,99.7 c -2.3,3.7 2.3,6.7 6.4,4.4 0.6,-0.7 0.5,-2.1 -0.6,-3.5 -2.4,1.2 -4.7,0.5 -5.8,-0.9 z"
       id="path1813"
       inkscape:connector-curvature="0" />
    <path
       style="fill:url(#linearGradient1821)"
       d="m 41.6,98.7 c -2.4,3.2 -6.6,5.3 -9.6,2.7 -0.3,-0.2 -0.5,-0.5 -0.7,-0.8 -1.1,1.4 -1.1,2.9 0.7,4.5 3.6,3.1 9.3,-0.8 11,-5.2 -0.3,-0.5 -0.9,-0.9 -1.4,-1.2 z"
       id="path1811"
       inkscape:connector-curvature="0" />
    <path
       style="fill:url(#linearGradient1823)"
       d="m 95.6,91.7 c -3.4,7.1 -11.3,2.5 -19.8,11.1 -1.4,1.5 -0.6,2.3 0.7,3 8.7,-8.2 16.7,-2.9 19.7,-11.8 0.2,-0.9 0,-1.6 -0.6,-2.3 z"
       id="path1809"
       inkscape:connector-curvature="0" />
    <path
       style="fill:url(#linearGradient1825)"
       d="m 103,91.3 c -0.7,0.8 -1.3,1.7 -1.5,2.7 0,2.1 15.4,3.4 15.4,-0.6 -0.3,-0.7 -0.6,-1.4 -1.2,-2.1 -2.8,1.6 -9.7,1.2 -12.7,0 z"
       id="path1807"
       inkscape:connector-curvature="0" />
    <path
       style="fill:url(#linearGradient1827)"
       d="m 23.2,82.2 c -1.3,0.9 -2,1.9 -0.9,2.9 3.5,3.7 21.5,7.1 25.2,10.7 0.9,-1.2 1.2,-2.4 0.1,-3.6 -3.4,-3.4 -19.4,-6.6 -24.4,-10 z"
       id="path1805"
       inkscape:connector-curvature="0" />
    <path
       style="fill:#ffffff"
       d="m 44.3,73.7 c -3.2,0 -5.2,1.6 0.6,3.7 7.7,0.6 18.8,3.7 21.2,4.7 3.7,-6.6 -21,-8.4 -21.8,-8.4 z"
       id="path1803"
       inkscape:connector-curvature="0" />
    <path
       style="fill:url(#linearGradient1829)"
       d="m 120,62.7 c -2.7,8.9 -25.5,12.3 -33.4,17 -1.1,1.1 -0.4,2.1 0.9,3.1 9.8,-4.9 35.7,-8.7 32.5,-20.1 z"
       id="path1801"
       inkscape:connector-curvature="0" />
    <path
       style="fill:url(#linearGradient3737)"
       d="m 8.9,61.7 c -2.6,9.4 13.4,9.2 22.3,12.7 1.5,-0.9 2.3,-2 1.2,-3 C 25.2,67.8 11,67.8 8.9,61.7 Z"
       id="path46"
       inkscape:connector-curvature="0" />
    <path
       class="full-specularity"
       d="m 70.5,15.5 16.3,16.6 c 1.5,1.5 1.5,4.6 0.6,5.5 L 79.3,31 77.7,40.7 71,37.1 60.1,44 56.5,29.5 50.7,42.1 36.2,42 c -2.8,0 -2.4,-2.9 0.5,-5.8 5.7,-6.3 16.8,-17 20.3,-20.7 3.6,-3.7 9.9,-3.6 13.5,0 z"
       id="icecap"
       inkscape:connector-curvature="0"
       style="fill:url(#linearGradient3739)" />
  </g>
</svg>

<?xml version="1.0" encoding="UTF-8" standalone="no"?>
<svg
   xmlns:dc="http://purl.org/dc/elements/1.1/"
   xmlns:cc="http://web.resource.org/cc/"
   xmlns:rdf="http://www.w3.org/1999/02/22-rdf-syntax-ns#"
   xmlns:svg="http://www.w3.org/2000/svg"
   xmlns="http://www.w3.org/2000/svg"
   xmlns:xlink="http://www.w3.org/1999/xlink"
   xmlns:sodipodi="http://inkscape.sourceforge.net/DTD/sodipodi-0.dtd"
   xmlns:inkscape="http://www.inkscape.org/namespaces/inkscape"
   id="svg1"
   width="15.010778"
   height="14.757766"
  >
  <sodipodi:namedview
     id="base"
     showgrid="true"
     gridspacingy="1pt"
     gridspacingx="1pt"
     gridoriginy="0pt"
     gridoriginx="0pt"
  />
  <defs id="defs3">

    <linearGradient gradientUnits="userSpaceOnUse" id="linearGradient3731" inkscape:collect="always" x1="0" x2="0" xlink:href="#WhiteTransparent" y1="128" y2="76"/>
    <linearGradient gradientUnits="userSpaceOnUse" id="linearGradient3735" inkscape:collect="always" x1="33" x2="58" xlink:href="#WhiteTransparent" y1="35" y2="60"/>
    <linearGradient gradientUnits="userSpaceOnUse" id="linearGradient3733" inkscape:collect="always" x1="80" x2="60" xlink:href="#WhiteTransparent" y1="20" y2="40"/>
    <linearGradient gradientUnits="userSpaceOnUse" id="linearGradient3737" inkscape:collect="always" x1="0" x2="0" xlink:href="#BlackTransparent" y1="128" y2="64"/>
    <linearGradient gradientUnits="userSpaceOnUse" id="BlackTransparent">
      <stop id="stop12" offset="0" style="stop-color:black;stop-opacity:1"/>
      <stop id="stop14" offset="1" style="stop-color:black;stop-opacity:0"/>
    </linearGradient>
    <linearGradient gradientUnits="userSpaceOnUse" id="WhiteTransparent">
      <stop id="stop7" offset="0" style="stop-color:white;stop-opacity:1"/>
      <stop id="stop9" offset="1" style="stop-color:white;stop-opacity:0"/>
    </linearGradient>
    <linearGradient gradientUnits="userSpaceOnUse" id="linearGradient3739" inkscape:collect="always" x1="60" x2="90" xlink:href="#WhiteTransparent" y1="20" y2="50"/>
  </defs>
<g id="inkscape-logo" inkscape:label="#inkscape_options" transform="matrix(0.1336824,0,0,0.1336824,-1.06747000000001,-1.16972100000001)">
  <use class="outline-big" height="128" id="use32" style="opacity:0.1;fill:none" width="128" x="0" xlink:href="#outline1" y="0"/>
  <use class="outline-small" height="128" id="use34" style="opacity:0.2;fill:none" width="128" x="0" xlink:href="#outline1" y="0"/>
  <use class="black;" height="128" id="use36" width="128" x="0" xlink:href="#outline1" y="0"/>
  <use class="stroke-highlight" clip-path="url(#clipoutline1)" height="128" id="use38" style="opacity:0.2;fill:none" width="128" x="0" xlink:href="#outline1" y="0"/>
  <use class="specularity" height="128" id="use40" style="opacity:0.5;fill:url(#linearGradient3731)" width="128" x="0" xlink:href="#outline1" y="0"/>
  <use class="low-specularity" height="128" id="use42" style="opacity:0.25;fill:url(#linearGradient3733)" width="128" x="0" xlink:href="#outline1" y="0"/>
  <path class="specularity" d="M 16.8,56.9 C 5.7,67.9 25.2,64.8 40.2,70.7 L 71.2,16.2 C 66.5,11.4 60.5,11.8 56.2,16.2 Z" id="path44" inkscape:connector-curvature="0" style="opacity:0.5;fill:url(#linearGradient3735)"/>
  <path class="shade" d="M 8.9,61.7 C 6.3,71.1 22.3,70.9 31.2,74.4 32.7,73.5 33.5,72.4 32.4,71.4 25.2,67.8 11,67.8 8.9,61.7 Z M 120,62.7 C 117.3,71.6 94.5,75 86.6,79.7 85.5,80.8 86.2,81.8 87.5,82.8 97.3,77.9 123.2,74.1 120,62.7 Z M 44.3,73.7 C 41.1,73.7 39.1,75.3 44.9,77.4 52.6,78 63.7,81.1 66.1,82.1 69.8,75.5 45.1,73.7 44.3,73.7 Z M 23.2,82.2 C 21.9,83.1 21.2,84.1 22.3,85.1 25.8,88.8 43.8,92.2 47.5,95.8 48.4,94.6 48.7,93.4 47.6,92.2 44.2,88.8 28.2,85.6 23.2,82.2 Z M 103,91.3 C 102.3,92.1 101.7,93 101.5,94 101.5,96.1 116.9,97.4 116.9,93.4 116.6,92.7 116.3,92 115.7,91.3 112.9,92.9 106,92.5 103,91.3 Z M 95.6,91.7 C 92.2,98.8 84.3,94.2 75.8,102.8 74.4,104.3 75.2,105.1 76.5,105.8 85.2,97.6 93.2,102.9 96.2,94 96.4,93.1 96.2,92.4 95.6,91.7 Z M 41.6,98.7 C 39.2,101.9 35,104 32,101.4 31.7,101.2 31.5,100.9 31.3,100.6 30.2,102 30.2,103.5 32,105.1 35.6,108.2 41.3,104.3 43,99.9 42.7,99.4 42.1,99 41.6,98.7 Z M 98.3,99.7 C 96,103.4 100.6,106.4 104.7,104.1 105.3,103.4 105.2,102 104.1,100.6 101.7,101.8 99.4,101.1 98.3,99.7 Z M 43.9,103.6 C 43,104.7 42.7,106 43.8,107.2 47.4,110.8 55.8,107.3 57.3,115.8 58.4,121.9 72,118.7 78.8,113.8 80.3,112.16 79.6,111.1 78.3,110.3 71.2,115.1 58.3,118 57.3,112.2 55.8,103.7 47.5,107.1 43.9,103.6 Z" id="path46" inkscape:connector-curvature="0" style="fill:url(#linearGradient3737)"/>
  <path class="full-specularity" d="M 70.5,15.5 86.8,32.1 C 88.3,33.6 88.3,36.7 87.4,37.6 L 79.3,31 77.7,40.7 71,37.1 60.1,44 56.5,29.5 50.7,42.1 36.2,42 C 33.4,42 33.8,39.1 36.7,36.2 42.4,29.9 53.5,19.2 57,15.5 60.6,11.8 66.9,11.9 70.5,15.5 Z" id="icecap" inkscape:connector-curvature="0" style="fill:url(#linearGradient3739)"/>
</g>

</svg>
